themes/kde-plasma/right-arrow.svg

<svg height="22" viewBox="0 0 21.999999 22" width="22" xmlns="http://www.w3.org/2000/svg"><path d="m7.7070312 3-.7070312.7070312 6.125 6.125 1.167969 1.1679688-1.167969 1.167969-6.125 6.125.7070312.707031 6.1249998-6.125 1.875-1.875-1.875-1.875z" fill="#4d4d4d" transform="translate(-.000001)"/></svg>

<?xml version="1.0" encoding="UTF-8" standalone="no"?>
<!-- Created with Inkscape (http://www.inkscape.org/) -->

<svg
   xmlns:dc="http://purl.org/dc/elements/1.1/"
   xmlns:cc="http://creativecommons.org/ns#"
   xmlns:rdf="http://www.w3.org/1999/02/22-rdf-syntax-ns#"
   xmlns:svg="http://www.w3.org/2000/svg"
   xmlns="http://www.w3.org/2000/svg"
   xmlns:sodipodi="http://sodipodi.sourceforge.net/DTD/sodipodi-0.dtd"
   xmlns:inkscape="http://www.inkscape.org/namespaces/inkscape"
   width="22"
   height="22"
   id="svg2"
   version="1.1"
   inkscape:version="0.48+devel r"
   viewBox="0 0 21.999999 22"
   sodipodi:docname="arrow-right.svg">
  <defs
     id="defs4" />
  <sodipodi:namedview
     id="base"
     pagecolor="#ffffff"
     bordercolor="#666666"
     borderopacity="1.0"
     inkscape:pageopacity="0.0"
     inkscape:pageshadow="2"
     inkscape:zoom="32"
     inkscape:cx="3.7327951"
     inkscape:cy="11.666016"
     inkscape:document-units="px"
     inkscape:current-layer="layer1"
     showgrid="true"
     inkscape:window-width="1366"
     inkscape:window-height="718"
     inkscape:window-x="-2"
     inkscape:window-y="23"
     inkscape:window-maximized="1"
     inkscape:showpageshadow="false"
     borderlayer="true"
     units="px"
     width="24px"
     showguides="true">
    <inkscape:grid
       type="xygrid"
       id="grid4081" />
    <sodipodi:guide
       position="2,20.000017"
       orientation="18,0"
       id="guide4113" />
    <sodipodi:guide
       position="2,2.0000174"
       orientation="0,18"
       id="guide4115" />
    <sodipodi:guide
       position="20,2.0000174"
       orientation="-18,0"
       id="guide4117" />
    <sodipodi:guide
       position="20,20.000017"
       orientation="0,-18"
       id="guide4119" />
    <sodipodi:guide
       position="2,20.000017"
       orientation="18,0"
       id="guide4143" />
    <sodipodi:guide
       position="2,2.0000174"
       orientation="0,3.9999995"
       id="guide4145" />
    <sodipodi:guide
       position="5.9999995,20.000017"
       orientation="0,-3.9999995"
       id="guide4149" />
    <sodipodi:guide
       position="15.999999,2.0000174"
       orientation="0,4.0000019"
       id="guide4153" />
    <sodipodi:guide
       position="20,2.0000174"
       orientation="-18,0"
       id="guide4155" />
    <sodipodi:guide
       position="20,20.000017"
       orientation="0,-4.0000019"
       id="guide4157" />
    <sodipodi:guide
       position="3,19.000017"
       orientation="16,0"
       id="guide4278" />
    <sodipodi:guide
       position="3,3.0000174"
       orientation="0,16"
       id="guide4280" />
    <sodipodi:guide
       position="19,3.0000174"
       orientation="-16,0"
       id="guide4282" />
    <sodipodi:guide
       position="19,19.000017"
       orientation="0,-16"
       id="guide4284" />
    <sodipodi:guide
       position="3,4.0000174"
       orientation="1,0"
       id="guide4290" />
    <sodipodi:guide
       position="3,3.0000174"
       orientation="0,16"
       id="guide4292" />
    <sodipodi:guide
       position="19,3.0000174"
       orientation="-1,0"
       id="guide4294" />
    <sodipodi:guide
       position="3,19.000262"
       orientation="1,0"
       id="guide4298" />
    <sodipodi:guide
       position="19,18.000262"
       orientation="-1,0"
       id="guide4302" />
    <sodipodi:guide
       position="19,19.000262"
       orientation="0,-16"
       id="guide4304" />
    <sodipodi:guide
       position="3,19.000017"
       orientation="16,0"
       id="guide4132" />
    <sodipodi:guide
       position="3,3.0000174"
       orientation="0,4.0000005"
       id="guide4134" />
    <sodipodi:guide
       position="7.0000005,3.0000174"
       orientation="-16,0"
       id="guide4136" />
    <sodipodi:guide
       position="7.0000005,19.000017"
       orientation="0,-4.0000005"
       id="guide4138" />
    <sodipodi:guide
       position="15.000001,19.000017"
       orientation="16,0"
       id="guide4140" />
    <sodipodi:guide
       position="15.000001,3.0000174"
       orientation="0,4"
       id="guide4142" />
    <sodipodi:guide
       position="19,3.0000174"
       orientation="-16,0"
       id="guide4144" />
    <sodipodi:guide
       position="19,19.000017"
       orientation="0,-4"
       id="guide4146" />
    <sodipodi:guide
       position="7.0000005,11.000506"
       orientation="8,0"
       id="guide4158" />
    <sodipodi:guide
       position="7.0000005,3.0005057"
       orientation="0,8"
       id="guide4160" />
    <sodipodi:guide
       position="15.000001,3.0005057"
       orientation="-8,0"
       id="guide4162" />
    <sodipodi:guide
       position="15.000001,11.000506"
       orientation="0,-8"
       id="guide4164" />
    <sodipodi:guide
       position="7.0000005,19.000017"
       orientation="15.999512,0"
       id="guide4168" />
    <sodipodi:guide
       position="7.0000005,3.0005057"
       orientation="0,0.99999952"
       id="guide4170" />
    <sodipodi:guide
       position="8,19.000017"
       orientation="0,-0.99999952"
       id="guide4174" />
    <sodipodi:guide
       position="14,19.000262"
       orientation="16.000244,0"
       id="guide4321" />
    <sodipodi:guide
       position="14,3.0000174"
       orientation="0,1.000001"
       id="guide4323" />
    <sodipodi:guide
       position="15.000001,3.0000174"
       orientation="-16.000244,0"
       id="guide4325" />
    <sodipodi:guide
       position="15.000001,19.000262"
       orientation="0,-1.000001"
       id="guide4327" />
    <sodipodi:guide
       position="13.12498,9.8320856"
       orientation="0.70710678,0.70710678"
       id="guide4335" />
    <sodipodi:guide
       position="13.832086,9.1249788"
       orientation="6.1249931,-6.1249931"
       id="guide4337" />
    <sodipodi:guide
       position="7.7070932,2.9999857"
       orientation="-0.70710678,-0.70710678"
       id="guide4339" />
    <sodipodi:guide
       position="6.9999865,3.7070925"
       orientation="-6.1249931,6.1249931"
       id="guide4341" />
    <sodipodi:guide
       position="13.12498,12.167903"
       orientation="-0.70710678,0.70710678"
       id="guide4343" />
    <sodipodi:guide
       position="13.832086,12.87501"
       orientation="-6.1249931,-6.1249931"
       id="guide4345" />
    <sodipodi:guide
       position="7.7070932,19.000003"
       orientation="0.70710678,-0.70710678"
       id="guide4347" />
    <sodipodi:guide
       position="6.9999865,18.292896"
       orientation="6.1249931,6.1249931"
       id="guide4349" />
    <sodipodi:guide
       position="13.831826,9.125"
       orientation="-0.7071,-0.707107"
       id="guide4351" />
    <sodipodi:guide
       position="13.124719,9.8321"
       orientation="-1.1682,1.168168"
       id="guide4353" />
    <sodipodi:guide
       position="14.292886,11.0003"
       orientation="-1.1681,-1.168168"
       id="guide4355" />
    <sodipodi:guide
       position="13.124719,12.1684"
       orientation="-0.7071,0.707107"
       id="guide4357" />
    <sodipodi:guide
       position="13.831826,12.8755"
       orientation="1.8752,1.875274"
       id="guide4359" />
    <sodipodi:guide
       position="15.707099,11.0003"
       orientation="1.8753,-1.875274"
       id="guide4361" />
  </sodipodi:namedview>
  <metadata
     id="metadata7">
    <rdf:RDF>
      <cc:Work
         rdf:about="">
        <dc:format>image/svg+xml</dc:format>
        <dc:type
           rdf:resource="http://purl.org/dc/dcmitype/StillImage" />
        <dc:title />
      </cc:Work>
    </rdf:RDF>
  </metadata>
  <g
     inkscape:label="Capa 1"
     inkscape:groupmode="layer"
     id="layer1"
     transform="translate(0,-1030.3622)">
    <path
       style="fill:#4d4d4d;fill-opacity:1;stroke:none"
       d="M 7.7070312 3 L 7 3.7070312 L 13.125 9.8320312 L 14.292969 11 L 13.125 12.167969 L 7 18.292969 L 7.7070312 19 L 13.832031 12.875 L 15.707031 11 L 13.832031 9.125 L 7.7070312 3 z "
       transform="translate(-5e-7,1030.3622)"
       id="rect4176" />
  </g>
</svg>
